X: 1
T: O'Keefe's
M: 12/8
L: 1/8
R: slide
K: Dmaj
|:A2F A2d f3 f3|gfe fed B3 B2A|Bcd B2A Bcd B2A|
[1Bcd efe d3 dcB:|2Bcd efe d3 d2f||
|:a3 a2f e2d B2e|e2d BAB e2d B2A|a3 a2f e2d B2A|
[1Bcd efe d3 d2f:|2Bcd efe d3 dcB||
